X: 10836
T: Dreaming Of The Bones, The
R: reel
M: 4/4
K: Eminor
"A"z2G2 F2 E2|JB8-|B3-B2{c/}BA^A|JB8-|B8-|B8-|!>!B3z4 F|G2 JA3-A2 c|B{AB}A6F|
GJA6 c|B A/B/A6|z2JE3-E2{A}E-|E2 ^D2 E2 F2|G2 JF4-{A}F2-|F{A}F E JE3-E2-|!>!E8|
"B"D8-|D8-|D8-|DJG4-G3-|G2{A}G3FE2-|E8-|!>!E4z4|B2J!>!c2B2{c}A2|G2D6-|D8-|D6z2|
F2J{A}G3JGJ{A}G2|J{A}GJ{A}G2J{A}GFEE2-|E8-|!>!E4z4|z2B2JcB2A/B/|
AG2F/G/F4-|F8-|F2G/A/G3-G2-|G8-|G4zE3-|E8-|E8|
"C"E2JF6-|F8-|FGAG3-G2-|G8-|G2-F2JF4-|F6-E2-|E8-|E8-|!>!E3z3z2|
"D" A2JB6-|B8-|B8-|B8-|B8-|B3-A4{B}A|GE2JF3-F2-|F8-|FGAG3-G2|!>!G8|-F3z2E3-|E8-|E8|
z8|z8|z8|z8|JB3A/B/A/B/A3-|A4{c}AGE2-|E8-|E8-|E2!>!JG4-F2-|F8-|F8-|F8-|F6JG2|
{A}G2E6-|E2{A}E6-|!>!E4{dB}z4|z8|z8|z8|z8|z8|zJF4-F3-|F2 (3GAG E4-|E8-|E8-|E8-|!>!E2{dB}z6|

